src/assets/bg.svg

<?xml version="1.0" encoding="UTF-8" standalone="no" ?>
<!DOCTYPE svg PUBLIC "-//W3C//DTD SVG 1.1//EN" "http://www.w3.org/Graphics/SVG/1.1/DTD/svg11.dtd">
<svg xmlns="http://www.w3.org/2000/svg" xmlns:xlink="http://www.w3.org/1999/xlink" version="1.1" width="1080" height="1080" viewBox="0 0 1080 1080" xml:space="preserve">
<desc>Created with Fabric.js 5.2.4</desc>
<defs>
</defs>
<g transform="matrix(1 0 0 1 540 540)" id="b9b5c836-c25e-4c0e-b797-016d6178c913"  >
</g>
<g transform="matrix(1 0 0 1 540 540)" id="9bc15ec9-bdea-4626-b5ef-19f7af5b5b56"  >
<rect style="stroke: none; stroke-width: 1; stroke-dasharray: none; stroke-linecap: butt; stroke-dashoffset: 0; stroke-linejoin: miter; stroke-miterlimit: 4; fill: rgb(255,255,255); fill-rule: nonzero; opacity: 1; visibility: hidden;" vector-effect="non-scaling-stroke"  x="-540" y="-540" rx="0" ry="0" width="1080" height="1080" />
</g>
<g transform="matrix(1 0 0 1 883.19 297.55)"  >
<circle style="stroke: none; stroke-width: 1; stroke-dasharray: none; stroke-linecap: butt; stroke-dashoffset: 0; stroke-linejoin: miter; stroke-miterlimit: 4; fill: rgb(255,101,132); fill-rule: nonzero; opacity: 1;" vector-effect="non-scaling-stroke"  cx="0" cy="0" r="47.49974" />
</g>
<g transform="matrix(1 0 0 1 706.46 365.65)"  >
<path style="stroke: none; stroke-width: 1; stroke-dasharray: none; stroke-linecap: butt; stroke-dashoffset: 0; stroke-linejoin: miter; stroke-miterlimit: 4; fill: rgb(63,61,86); fill-rule: nonzero; opacity: 1;" vector-effect="non-scaling-stroke"  transform=" translate(-766.46, -275.65)" d="M 765.17412 332.68824 L 727.95812 259.61544000000004 L 765.2876 323.56371 L 765.6265 297.40824000000003 L 740.052 244.58558 L 765.72086 290.49284 L 766.32968 243.45489 L 738.5262700000001 201.17948 L 766.421 236.05784 L 768.4527700000001 150.19296 L 768.4631800000001 149.83635 L 768.4639000000001 150.19896 L 768.14353 259.14596 L 798.8378100000001 215.04333 L 768.23066 268.384 L 769.44286 320.97114 L 769.56846 319.58094 L 804.96258 273.05458 L 769.52664 324.50343 L 769.6802600000001 331.08043 L 769.7394700000001 331.18417999999997 L 769.6954700000001 331.72112999999996 L 771.3003500000001 401.32325 Q 767.82581 401.46824999999995 764.2823500000001 401.44124999999997 L 764.34987 396.02655999999996 L 732.058 342.73008 L 764.41611 390.84979 Z" stroke-linecap="round" />
</g>
<g transform="matrix(1 0 0 1 533.06 407.4)"  >
<path style="stroke: none; stroke-width: 1; stroke-dasharray: none; stroke-linecap: butt; stroke-dashoffset: 0; stroke-linejoin: miter; stroke-miterlimit: 4; fill: rgb(203,203,203); fill-rule: nonzero; opacity: 1;" vector-effect="non-scaling-stroke"  transform=" translate(-593.07, -317.4)" d="M 591.77937 374.439 L 554.56337 301.36620000000005 L 591.89283 365.31446000000005 L 592.23175 339.15900000000005 L 566.6572600000001 286.33634000000006 L 592.3261200000001 332.2436000000001 L 592.93496 285.20560000000006 L 565.13156 242.93017000000006 L 593.02623 277.80849000000006 L 595.05798 191.94363000000007 L 595.0684100000001 191.58702000000008 L 595.0691100000001 191.94963000000007 L 594.7487400000001 300.8966300000001 L 625.44293 256.794 L 594.8358400000001 310.13466999999997 L 596.0480600000001 362.72178999999994 L 596.1736800000001 361.33158999999995 L 631.5678000000001 314.80524999999994 L 596.1318700000002 366.25409999999994 L 596.2854600000002 372.83109999999994 L 596.3446900000001 372.9348499999999 L 596.3007400000001 373.4717999999999 L 597.9056200000001 443.07391999999993 Q 594.4311100000001 443.2189199999999 590.8876200000001 443.1919199999999 L 590.95514 437.7772599999999 L 558.66323 384.48077999999987 L 591.02131 432.60051999999985 Z" stroke-linecap="round" />
</g>
<g transform="matrix(1 0 0 1 855.68 354.25)"  >
<path style="stroke: none; stroke-width: 1; stroke-dasharray: none; stroke-linecap: butt; stroke-dashoffset: 0; stroke-linejoin: miter; stroke-miterlimit: 4; fill: rgb(63,61,86); fill-rule: nonzero; opacity: 1;" vector-effect="non-scaling-stroke"  transform=" translate(-915.69, -264.25)" d="M 914.40051 321.28774 L 877.18451 248.21493999999998 L 914.514 312.16321 L 914.8529 286.00774 L 889.27836 233.18508000000003 L 914.94722 279.09234000000004 L 915.55604 232.05439000000004 L 887.75268 189.779 L 915.6473500000001 224.65732 L 917.67911 138.79245 L 917.68952 138.43584 L 917.69024 138.79844 L 917.36987 247.74544 L 948.06411 203.64288 L 917.457 256.98349 L 918.66921 309.5706 L 918.79481 308.1804 L 954.189 261.65405 L 918.75307 313.10292 L 918.9066799999999 319.67992 L 918.9658999999999 319.78367 L 918.9218999999999 320.32066999999995 L 920.5268 389.92277999999993 Q 917.0522599999999 390.06782999999996 913.5088 390.0407799999999 L 913.57633 384.62609999999995 L 881.2844 331.32959999999997 L 913.6425 379.44933999999995 Z" stroke-linecap="round" />
</g>
<g transform="matrix(1 0 0 1 540 661.62)"  >
<path style="stroke: none; stroke-width: 1; stroke-dasharray: none; stroke-linecap: butt; stroke-dashoffset: 0; stroke-linejoin: miter; stroke-miterlimit: 4; fill: rgb(241,241,241); fill-rule: nonzero; opacity: 1;" vector-effect="non-scaling-stroke"  transform=" translate(-600, -571.61)" d="M 273.74194 572.38927 C 295.4201791019522 556.4093219614402 318.1538938591804 541.9131370405441 341.78760000000034 528.9998599999999 C 407.88707999999997 492.5255 489.17322 461.33786 581.5850800000001 437.17751 Q 591.1107000000001 434.67917 600.7954100000001 432.29308 Q 621.36264 427.2027 642.61279 422.59902 Q 647.86225 421.46682 653.1396500000001 420.34389 Q 682.71311 414.12609 713.4656500000001 408.86262999999997 C 713.8773600000001 408.78774 714.2890700000002 408.72220999999996 714.7101500000001 408.65671999999995 Q 721.9292800000001 407.40757999999994 729.2138500000001 406.24253999999996 C 826.2481500000001 390.47565999999995 931.4045800000001 381.80154 1041.2677 381.67053999999996 C 1042.1753 381.66116999999997 1043.09236 381.66116999999997 1043.99998 381.66116999999997 L 1043.99998 761.56417 L 156 761.56417 C 156 692.68572 198.83734 628.09282 273.74194 572.38927 Z" stroke-linecap="round" />
</g>
<g transform="matrix(1 0 0 1 641.71 705.13)"  >
<path style="stroke: none; stroke-width: 1; stroke-dasharray: none; stroke-linecap: butt; stroke-dashoffset: 0; stroke-linejoin: miter; stroke-miterlimit: 4; fill: rgb(230,62,37); fill-rule: nonzero; opacity: 1;" vector-effect="non-scaling-stroke"  transform=" translate(-701.7, -615.12)" d="M 450.18176 615.72264 C 488.02234 587.58544 536.474 562.3864599999999 593.20676 541.13622 Q 602.6527600000001 537.58517 612.40776 534.2025 C 613.31541 533.8843899999999 614.2324000000001 533.56621 615.14939 533.2480899999999 Q 627.57109 528.98119 640.47001 524.9388899999999 Q 662.26762 518.12682 685.3004 512.0633399999999 Q 701.78775 507.7075299999999 718.8553999999999 503.7634699999999 Q 724.3386199999999 502.48155999999994 729.8687899999999 501.2743999999999 Q 742.4402699999998 498.4766399999999 755.3110899999999 495.9221099999999 C 843.035 478.44286 940.85541 468.68327 1044 468.68327 L 1044 761.56419 L 359.40723 761.56419 C 359.40723 708.462 392.43817 658.66283 450.18176 615.72264 Z" stroke-linecap="round" />
</g>
<g transform="matrix(1 0 0 1 677.64 720.03)"  >
<path style="stroke: none; stroke-width: 1; stroke-dasharray: none; stroke-linecap: butt; stroke-dashoffset: 0; stroke-linejoin: miter; stroke-miterlimit: 4; fill: rgb(255,255,255); fill-rule: nonzero; opacity: 1;" vector-effect="non-scaling-stroke"  transform=" translate(-737.64, -630.02)" d="M 432.23444 746.36815 L 433.92810000000003 747.1728400000001 C 439.6775529650315 735.2679909876193 446.69895157194173 724.0205737627596 454.86956999999995 713.6271800000001 L 453.39111 712.4762400000001 C 445.1399979961916 722.9794205724721 438.0466918386381 734.3425365020702 432.23444 746.36815 Z M 480.43353 683.09453 L 481.71553 684.4606799999999 C 490.8969775055792 675.92287815486 500.55005309067786 667.9067498524059 510.6292800000001 660.4500599999999 C 511.19074 660.0289799999999 511.76148 659.6078999999999 512.33228 659.1868099999999 L 511.21874999999994 657.6803399999999 C 510.6479499999999 658.1014299999999 510.0772099999999 658.5225099999999 509.50634999999994 658.9529299999999 C 499.37372497469744 666.4528631665188 489.667684377798 674.5126024582046 480.43352999999996 683.0945300000001 Z M 544.465 635.588 L 545.4287400000001 637.188 C 556.3392600000001 630.6005299999999 568.0451300000001 624.12537 580.2095 617.94025 L 579.3580000000001 616.26525 C 567.15619 622.4785 555.41284 628.9818 544.465 635.588 Z M 615.45822 599.3006499999999 L 616.19742 601.0130499999999 C 628.01559 595.87596 640.43265 590.86052 653.08359 586.1163799999999 L 652.42859 584.3665599999999 C 639.74005 589.12 627.30438 594.14482 615.45819 599.30065 Z M 690.07263 571.2197099999998 L 690.6434 572.9976099999999 C 693.9558400000001 571.92149 697.27768 570.8641799999999 700.6369000000001 569.8068099999999 C 709.7883 566.9528099999999 719.2390700000001 564.1456199999999 728.73666 561.48821 L 728.23135 559.6822099999999 C 718.71506 562.34895 709.24557 565.1561399999999 700.0755 568.02883 Q 695.04126 569.60557 690.0726 571.21971 Z M 778.52637 546.8347099999999 C 774.60571 547.7330299999999 770.6569800000001 548.6687599999999 766.8018500000001 549.6045499999999 L 767.24161 551.4198599999999 C 771.0968 550.4934699999999 775.03619 549.5577399999999 778.9568800000001 548.6500799999999 C 782.6716600000001 547.7892399999998 786.3677700000001 546.9471399999999 789.9516000000001 546.1704699999999 C 795.2946000000001 544.98205 800.7217700000001 543.8123699999999 806.0740700000001 542.7082499999999 L 805.6998000000001 540.87425 C 800.3288000000001 541.98772 794.9015200000001 543.1479999999999 789.5492200000001 544.33641 C 785.9653900000001 545.12241 782.25061 545.96452 778.5264000000001 546.83476 Z M 844.85031 533.4072199999998 L 845.17786 535.2506099999998 C 858.06271 532.9954799999998 871.29386 530.8807299999999 884.48755 528.9718599999999 L 884.2161600000001 527.1191399999999 C 871.00375 529.03734 857.76328 531.15209 844.85028 533.40721 Z M 923.7504 521.9633099999999 L 923.96561 523.8253699999999 C 937.00961 522.3095099999999 950.3343 520.9432899999999 963.57474 519.7549399999999 L 963.4063100000001 517.8928799999999 C 950.15648 519.08122 936.81308 520.44743 923.75037 521.9633 Z M 1003.16507 514.8704799999998 L 1003.27734 516.7419399999998 C 1016.4149199999999 515.9091799999998 1029.79573 515.2354699999997 1043.0455299999999 514.7394999999998 L 1042.98003 512.8680399999998 C 1029.70213 513.37334 1016.312 514.047 1003.165 514.87047 Z" stroke-linecap="round" />
</g>
<g transform="matrix(1 0 0 1 744.5 749.11)"  >
<path style="stroke: none; stroke-width: 1; stroke-dasharray: none; stroke-linecap: butt; stroke-dashoffset: 0; stroke-linejoin: miter; stroke-miterlimit: 4; fill: rgb(241,241,241); fill-rule: nonzero; opacity: 1;" vector-effect="non-scaling-stroke"  transform=" translate(-804.5, -659.1)" d="M 628.52075 659.52373 C 711.2012 598.03746 866.3064 556.6411 1044 556.6411 L 1044 761.56419 L 565.004 761.56419 C 565.004 724.41606 588.11633 689.56975 628.52075 659.52373 Z" stroke-linecap="round" />
</g>
<g transform="matrix(1 0 0 1 540 756.98)"  >
<path style="stroke: none; stroke-width: 1; stroke-dasharray: none; stroke-linecap: butt; stroke-dashoffset: 0; stroke-linejoin: miter; stroke-miterlimit: 4; fill: rgb(0,0,0); fill-rule: nonzero; opacity: 0.2;" vector-effect="non-scaling-stroke"  transform=" translate(-600, -666.98)" d="M 273.74188 572.38927 L 450.18157999999994 615.72258 L 628.5207499999999 659.52373 L 1044 761.56419 L 156 761.56419 C 156 692.68572 198.83734 628.09282 273.74188 572.38927 Z" stroke-linecap="round" />
</g>
</svg>

<svg xmlns="http://www.w3.org/2000/svg" width="888" height="623.12839" viewBox="0 0 888 623.12839" xmlns:xlink="http://www.w3.org/1999/xlink" role="img" artist="Katerina Limpitsouni" source="https://undraw.co/"><circle cx="787.19149" cy="69.11547" r="47.49974" fill="#ff6584"/><path d="M765.17412,332.68824l-37.216-73.0728,37.32948,63.94827.3389-26.15547L740.052,244.58558l25.66886,45.90726.60882-47.03795-27.80341-42.27541L766.421,236.05784l2.03177-85.86488.01041-.35661.00072.36261-.32037,108.947,30.69428-44.10263L768.23066,268.384l1.2122,52.58714.1256-1.3902,35.39412-46.52636-35.43594,51.44885.15362,6.577.05921.10375-.044.53695,1.60488,69.60212q-3.47454.145-7.018.118l.06752-5.41469L732.058,342.73008l32.35811,48.11971Z" transform="translate(-156 -138.43581)" fill="#3f3d56"/><path d="M591.77937,374.439l-37.216-73.0728,37.32946,63.94826.33892-26.15546-25.57449-52.82266,25.66886,45.90726.60884-47.038-27.8034-42.27543,27.89467,34.87832,2.03175-85.86486.01043-.35661.0007.36261-.32037,108.947L625.44293,256.794l-30.60709,53.34067,1.21222,52.58712.12562-1.3902,35.39412-46.52634-35.43593,51.44885.15359,6.577.05923.10375-.04395.53695,1.60488,69.60212q-3.47451.145-7.018.118l.06752-5.41466-32.29191-53.29648,32.35808,48.11974Z" transform="translate(-156 -138.43581)" fill="#cbcbcb"/><path d="M914.40051,321.28774l-37.216-73.0728L914.514,312.16321l.3389-26.15547-25.57454-52.82266,25.66886,45.90726.60882-47.03795L887.75268,189.779l27.89467,34.87832,2.03176-85.86487.01041-.35661.00072.3626-.32037,108.947,30.69424-44.10256L917.457,256.98349l1.21221,52.58711.1256-1.3902L954.189,261.65405l-35.43593,51.44887.15361,6.577.05922.10375-.044.537,1.6049,69.60211q-3.47454.14505-7.018.118l.06753-5.41468-32.29193-53.2965,32.3581,48.11974Z" transform="translate(-156 -138.43581)" fill="#3f3d56"/><path d="M273.74194,572.38927a597.57651,597.57651,0,0,1,68.04566-43.38941c66.09948-36.47436,147.38562-67.662,239.79748-91.82235q9.52562-2.49834,19.21033-4.88443,20.56723-5.09038,41.81738-9.69406,5.24946-1.1322,10.52686-2.25513,29.57346-6.2178,60.326-11.48126c.41171-.07489.82342-.14042,1.2445-.20591q7.21913-1.24914,14.5037-2.41418c97.0343-15.76688,202.19073-24.441,312.05385-24.572.9076-.00937,1.82466-.00937,2.73228-.00937v379.903H156C156,692.68572,198.83734,628.09282,273.74194,572.38927Z" transform="translate(-156 -138.43581)" fill="#f1f1f1"/><path d="M450.18176,615.72264c37.84058-28.1372,86.29224-53.33618,143.025-74.58642q9.446-3.55105,19.201-6.93372c.90765-.31811,1.82464-.63629,2.74163-.95441q12.4217-4.2669,25.32062-8.3092,21.79761-6.81207,44.83039-12.87555,16.48735-4.35581,33.555-8.29987,5.48322-1.28191,11.01339-2.48907,12.57148-2.79776,25.4423-5.35229C843.035,478.44286,940.85541,468.68327,1044,468.68327V761.56419H359.40723C359.40723,708.462,392.43817,658.66283,450.18176,615.72264Z" transform="translate(-156 -138.43581)" fill="#E63E25"/><path d="M432.23444,746.36815l1.69366.80469a183.17229,183.17229,0,0,1,20.94147-33.54566l-1.47846-1.15094A185.611,185.611,0,0,0,432.23444,746.36815Zm48.19909-63.27362,1.282,1.36615a335.313,335.313,0,0,1,28.91375-24.01062c.56146-.42108,1.1322-.84216,1.703-1.26325l-1.11353-1.50647c-.5708.42109-1.14154.84217-1.7124,1.27259A338.72729,338.72729,0,0,0,480.43353,683.09453ZM544.465,635.588l.96374,1.6c10.91052-6.58747,22.61639-13.06263,34.78076-19.24775l-.8515-1.675C567.15619,622.4785,555.41284,628.9818,544.465,635.588Zm70.99322-36.28735.7392,1.7124c11.81817-5.13709,24.23523-10.15253,36.88617-14.89667l-.655-1.74982C639.74005,589.12,627.30438,594.14482,615.45819,599.30065Zm74.61441-28.08094.57077,1.7779c3.31244-1.07612,6.63428-2.13343,9.9935-3.1908,9.1514-2.854,18.60217-5.66119,28.09976-8.3186l-.50531-1.806c-9.51629,2.66674-18.98578,5.47393-28.15585,8.34662Q695.04126,569.60557,690.0726,571.21971Zm88.45374-24.385c-3.92066.89832-7.86939,1.83405-11.72452,2.76984l.43976,1.81531c3.85519-.92639,7.79458-1.86212,11.71527-2.76978,3.71478-.86084,7.41089-1.70294,10.99472-2.47961,5.343-1.18842,10.77017-2.3581,16.12247-3.46222l-.37427-1.834c-5.371,1.11347-10.79828,2.27375-16.15058,3.46216-3.58383.786-7.29861,1.62811-11.02282,2.49835Zm66.32394-13.42749.32755,1.84339c12.88485-2.25513,26.116-4.36988,39.30969-6.27875l-.27139-1.85272C871.00375,529.03734,857.76328,531.15209,844.85028,533.40721Zm78.90009-11.44391.21521,1.86206c13.044-1.51586,26.36869-2.88208,39.60913-4.07043l-.16843-1.86206C950.15648,519.08122,936.81308,520.44743,923.75037,521.9633Zm79.41467-7.09283.11227,1.87146c13.13758-.83276,26.51839-1.50647,39.76819-2.00244l-.0655-1.87146C1029.70213,513.37334,1016.312,514.047,1003.165,514.87047Z" transform="translate(-156 -138.43581)" fill="#fff"/><path d="M628.52075,659.52373C711.2012,598.03746,866.3064,556.6411,1044,556.6411V761.56419H565.004C565.004,724.41606,588.11633,689.56975,628.52075,659.52373Z" transform="translate(-156 -138.43581)" fill="#f1f1f1"/><path d="M273.74188,572.38927l176.4397,43.33331,178.33917,43.80115L1044,761.56419H156C156,692.68572,198.83734,628.09282,273.74188,572.38927Z" transform="translate(-156 -138.43581)" opacity="0.2" style="isolation:isolate"/><polygon points="224.992 394.724 218.997 394.723 216.144 371.598 224.993 371.598 224.992 394.724" fill="#ffb7b7"/><path d="M382.52129,538.97138l-19.33231-.00072v-.24452a7.52506,7.52506,0,0,1,7.52467-7.52456h.00048l11.80752.00048Z" transform="translate(-156 -138.43581)" fill="#2f2e41"/><polygon points="277.959 390.307 272.168 391.862 263.417 370.266 271.964 367.972 277.959 390.307" fill="#ffb7b7"/><path d="M436.94212,533.95982l-18.67145,5.01156-.06339-.23617a7.52507,7.52507,0,0,1,5.3165-9.21816l.00046-.00013,11.40389-3.06084Z" transform="translate(-156 -138.43581)" fill="#2f2e41"/><path d="M356.0256,425.91049c-3.46527,4.45538,7.4256,41.58368,7.92071,42.07874s-.495,3.46533-.495,3.46533a2.44423,2.44423,0,0,0,.495,1.4851c.495.49506,0,.99006,0,1.98017s0,.99011.99012,2.97027a7.877,7.877,0,0,1,.495,4.45539l6.43561,37.62335a2.47009,2.47009,0,0,0-1.48517,2.47522c0,1.98022,9.90088,2.97034,13.36621,2.47522s-2.47522-44.554-2.47522-44.554,0-11.386.99012-12.3761,0-.99005,0-2.97027-1.48523-4.9505-.99012-6.43561.99012-22.772.99012-22.772,11.386,21.28689,11.386,24.25717,3.46533,7.92071,3.46533,7.92071l22.772,46.45484s-1.48511,2.97027,0,5.44549,7.92071.49506,14.35626-1.98016-2.47522-6.43561-2.47522-6.43561l-13.86121-39.52429a25.26454,25.26454,0,0,1,.495-4.45538c.495-2.47522-1.48517-1.48511-2.97028-2.47522s-.99011-.99011,0-2.97028-1.48511-6.43555-1.48511-6.43555l-6.43554-36.63323S359.49087,421.45511,356.0256,425.91049Z" transform="translate(-156 -138.43581)" fill="#2f2e41"/><circle cx="215.97598" cy="185.36774" r="12.87115" fill="#ffb8b8"/><path d="M367.189,340.59772s-17.55938,8.04608-19.04448,12.00643,9.36621,40.63328,9.36621,40.63328.65843,15.41973-1.32173,21.36029-1.64855,6.85723-1.64855,6.85723v4.45542c0,2.47522,15.84143.495,23.76215-1.9802s28.21753-1.98019,30.19769-2.47522-3.31129-6.85723-3.31129-6.85723c6.9306-.495,0-15,0-15s-.70855-46.95386-2.68871-53.38944-20.31129-7.61056-20.31129-7.61056l-9.3319,3.15518Z" transform="translate(-156 -138.43581)" fill="#E63E25"/><path d="M418.635,422.62774a5.43008,5.43008,0,0,1-.84778-8.28308L409.1319,397.098l9.958,1.17912,6.69252,16.19691a5.45949,5.45949,0,0,1-7.14744,8.15367Z" transform="translate(-156 -138.43581)" fill="#ffb8b8"/><path d="M411.50471,410.249l-10.09023-32.66282-11.51628-24.971a7.66192,7.66192,0,0,1,5.49157-10.7287h0a7.7032,7.7032,0,0,1,8.69595,4.987l21.00138,59.94255a2.42993,2.42993,0,0,1-1.78649,3.17985l-8.96726,1.91213a2.48368,2.48368,0,0,1-.517.05485A2.41607,2.41607,0,0,1,411.50471,410.249Z" transform="translate(-156 -138.43581)" fill="#E63E25"/><path d="M349.15783,433.90746a5.4301,5.4301,0,0,0-.97964-8.26853l4.68433-18.71941-9.46089,3.32311-2.99786,17.26681a5.45949,5.45949,0,0,0,8.75406,6.398Z" transform="translate(-156 -138.43581)" fill="#ffb8b8"/><path d="M351.53382,422.44825a2.48444,2.48444,0,0,1-.51657.05928l-9.16841.09019a2.42993,2.42993,0,0,1-2.43717-2.71353l7.4187-63.08035a7.70319,7.70319,0,0,1,7.39853-6.764h0a7.66192,7.66192,0,0,1,7.69984,9.27227l-5.79131,26.88195-2.72159,34.07733A2.41607,2.41607,0,0,1,351.53382,422.44825Z" transform="translate(-156 -138.43581)" fill="#E63E25"/></svg>
